!!!!SEGMENT: pl-kc--40102-iii-1-saf--002-051_zielenski-mikolaj--communiones-totius-anni-secunda-pars-ipsum-benedicite.krn
!!!cenid: 16xx:1582
!!!COM: Zieleński, Mikołaj
!!!COM-rismID: pe30013481
!!!CDT: <1611->1611
!!!CNT: Polish
!!!GTL: Communiones totius anni
!!!OTL: Secunda pars/Ipsum benedicite
!!!OMV: 051
!!!PDT: 1611
!!!AGN:
!!!SMS-siglum: PL-Kc
!!!SMS-shelfmark: 40102 III/1 Saf.
!!!SMS-shelfwork: 002-051 G
!!!SMS-variant:
!!!SMS-altvar:
!!!NIFC-rismSourceID: 990069887
!!!NIFC-rismChildID: 990069887
!!!NIFC-islandoraID: none
!!!URL-pdf-islandora:
!!!URL-scan: https://cyfrowe.mnk.pl/dlibra/publication/24235/edition/23926/content?ref=desc @EN{Scan on The National Museum in Krakow Website} @PL{Skany w portalu Biblioteka Cyfrowa Muzeum Narodowego w Krakowie}
!!!ONB-nifc: UWAGA: str. 72. Numer w źródle: 59. Uwaga: W xml metrum 2/1 do źródłowego C| i odpowiednio 3/1 do 3/2
!!!AIN: 5 organ
!!!key:
**kern	**kern	**kern	**kern	**kern
*part5	*part4	*part3	*part2	*part1
*staff5	*staff4	*staff3	*staff2	*staff1
*I"	*I"	*I"	*I"	*I"Organo
*I'	*I'	*I'	*I'	*I'org
*Iorgan	*Iorgan	*Iorgan	*Iorgan	*Iorgan
*ICklav	*ICklav	*ICklav	*ICklav	*I'org
*clefF4	*clefC4	*clefC3	*clefC1	*clefC1
*k[b-]	*k[b-]	*k[b-]	*k[b-]	*k[b-]
*F:	*F:	*F:	*F:	*F:
*M3/2	*M3/2	*M3/2	*M3/2	*M3/2
*met(O|)	*met(O|)	*met(O|)	*met(O|)	*met(O|)
=1	=1	=1	=1	=1
!LO:N:vis=00	!	!	!	!LO:TX:t=
00.r	0c	0e	0g	0cc
.	1G	1d	1g	1b-
=2-	=2-	=2-	=2-	=2-
.	0A	1.c	0e	0a
.	.	4B-/	.	.
.	.	4c/	.	.
.	1F	2d\	1f	1a
.	.	2c/	.	.
=3-	=3-	=3-	=3-	=3-
!LO:N:vis=00	!	!	!	!
00.r	0G	1.B-	1.d	0g
.	.	2A/	2c/	.
.	1G	1B-	1d	1g
=4-	=4-	=4-	=4-	=4-
!	!	!LO:N:vis=0	!	!
.	0.C	0.c	0.e	0.g
.	.	.	.	.
=5	=5	=5	=5	=5
0C	0G	0e	0cc	0g
1GG	1G	1d	1b-	1g
=6-	=6-	=6-	=6-	=6-
0D	0A	0d	0a	0f
1AA	1A	1c	1cc	1f
=7-	=7-	=7-	=7-	=7-
0BB-	0G	0d	0b-	1.f
.	.	.	.	4e/
.	.	.	.	4d/
1C	1G	1c	1g	1e
=8-	=8-	=8-	=8-	=8-
0FF	1F	1c	1a	1f
.	1F	1c	1a	1cc
1r	1D	1d	1a	1ff
=9	=9	=9	=9	=9
!LO:N:vis=00	!	!LO:N:acc=#	!	!
00.r	0G	0Bn	0g	0dd
.	1C	0c	0g	1ee
=10-	=10-	=10-	=10-	=10-
.	0G	.	.	1ee
!	!	!LO:N:acc=#	!	!
.	.	1Bn	1d	0dd
.	0C	0c	0e	.
=11-	=11-	=11-	=11-	=11-
1r	.	.	.	0cc
1C	1G	1c	1e	.
1AA	1A	1c	1a	1r
=12-	=12-	=12-	=12-	=12-
!	!	!	!	!LO:N:vis=0
0D	0A	0d	0f#X	0.r
[<1GG	[1B-	[1d	[1g	.
=13	=13	=13	=13	=13
1GG]	1B-]	1d]	1g]	1r
1r	1r	1g	1b-	1dd
1r	1r	1d	1dd	1ff
=14-	=14-	=14-	=14-	=14-
!lo;n;vis=0	!LO:N:vis=0	!	!	!
0.r	0.r	0a	0cc#X	0ee
.	.	0d	0dd	0dd
=15-	=15-	=15-	=15-	=15-
1r	1r	.	.	.
1BB-	1F	1f	1b-	1dd
1FF	1F	1a	1ccny	1ff
=16-	=16-	=16-	=16-	=16-
0C	0G	0g	0cc	1gg
.	.	.	.	1ee
1AA	1C	1a	1cc	1ff
=17	=17	=17	=17	=17
0BB-	0F	0f	0b-	0dd
1FF	1F	1f	1a	1cc
=18-	=18-	=18-	=18-	=18-
1C	1G	1e-X	1g	1ee-X
1C	1G	1c	1g	1ee-
1C	1G	1g	1cc	1ee-
=19-	=19-	=19-	=19-	=19-
0GG	0G	0g	0b-	0dd
1D	1A	1f	1a	1dd
=20-	=20-	=20-	=20-	=20-
1BB-	1D	1f	1b-	1dd
1BB-	1F	1f	1b-	1dd
1FF	1F	1a	1cc	1ff
*custos:C	*custos:G	*custos:g	*custos:cc	*custos:ee
!!linebreak:original
=21	=21	=21	=21	=21
0C	0G	0g	0cc	0ee
1GG	1G	1g	1b-	1dd
=22-	=22-	=22-	=22-	=22-
1BB-	1D	1f	1b-	1dd
1BB-	1F	1f	1b-	1dd
1BB-	1F	1f	1b-	1dd
=23-	=23-	=23-	=23-	=23-
0FF	0F	0f	0a	0cc
1C	1G	1e	1g	1cc
=24-	=24-	=24-	=24-	=24-
0GG	0G	0d	0g	0b-
1GG	1G	1d	1g	1b-
=25	=25	=25	=25	=25
*M2/1	*M2/1	*M2/1	*M2/1	*M2/1
*met(C|)	*met(C|)	*met(C|)	*met(C|)	*met(C|)
2D/	2A/	2d\	2f#X/	2a\
2.BB-/	2.D/	2.f\	2.b-\	2.dd\
4BB-/	4D/	4f\	4b-\	4dd\
2BB-/	2F/	2f\	2b-\	2dd\
=26-	=26-	=26-	=26-	=26-
1.FF	4F/	1.f	2.a\	2.cc\
.	4G/	.	.	.
.	4A/	.	.	.
.	4B-\	.	4g/	4b-\
.	2c\	.	2fny/	2a\
2C/	2G/	2c/	4e/	4g/
.	.	.	4d/	4f/
=27	=27	=27	=27	=27
2.C/	4G/	2c/	2.e/	4g/
.	4F/	.	.	4c/
.	4E/	2G/	.	2.cc\
4BB-/	4D/	.	2e/	.
4AA/	2C/	1A	.	.
4GG/	.	.	4e/	4b-\
2FF/	2c\	.	2f/	2a\
=28-	=28-	=28-	=28-	=28-
2EE/	4c\	1r	2g/	2g/
.	4B-\	.	.	.
2FF/	4A\	.	2c/	2.f/
.	8G/	.	.	.
.	8F/	.	.	.
1C	2G/	1c	1c	.
.	.	.	.	8e/
.	.	.	.	8d/
.	2G/	.	.	2e/
=29	=29	=29	=29	=29
2FF/	2F/	1A	1c	0f
2F\	2A/	.	.	.
2D/	2F/	2r	1r	.
2.F\	2.A/	2f\	.	.
=30-	=30-	=30-	=30-	=30-
.	.	2d\	0r	0r
4E\	4G/	.	.	.
2D/	4A/	2.f\	.	.
.	4F/	.	.	.
2C/	2G/	.	.	.
.	.	4e\	.	.
2BB-/	4G/	2d\	.	.
.	[4G/	.	.	.
=31	=31	=31	=31	=31
1AA	4G/]	1c	1r	1r
.	8F#X/	.	.	.
.	8E/	.	.	.
.	2F#/	.	.	.
0GG	0G	1B-	2r	2r
.	.	.	2b-\	2dd\
=32-	=32-	=32-	=32-	=32-
.	.	2r	2g/	2b-\
.	.	2G/	1b-	1dd
1r	1r	2B-/	.	.
.	.	2c/	4a\	4cc\
.	.	.	4g/	4b-\
=33	=33	=33	=33	=33
0r	0r	2d\	2f#X/	2a\
.	.	2e-X\	4g/	2g/
.	.	.	2g/	.
.	.	1d	.	1a
.	.	.	8f#X/	.
.	.	.	8e/	.
.	.	.	2f#/	.
=34-	=34-	=34-	=34-	=34-
1r	1r	2G/	2g/	2g/
.	.	2B-/	2d/	2dd\
2r	2r	2B-/	2d/	2dd\
2BB-/	2B-\	2f\	2b-\	2dd\
=35	=35	=35	=35	=35
2BB-/	2B-\	2.f\	2.b-\	2.dd\
2BB-/	2B-\	.	.	.
.	.	4e\	4cc\	4cc\
2.BB-/	2.F/	2d\	2dd\	2b-\
.	.	2d\	2b-\	2f/
4AA/	4F/	.	.	.
=36-	=36-	=36-	=36-	=36-
2GG/	2G/	2d\	2b-\	2g/
2C/	2E/	2c/	2g/	2g/
1FF	[y1F	2.c/	2a\	2f/
.	.	.	2cc\	2a\
.	.	4f\	.	.
=37	=37	=37	=37	=37
!	!LO:N:vis=4:xstem:cue	!	!	!
2F\	2F/]	2f\	2cc\	2a\
2F\	2A/	2f\	2cc\	2a\
!LO:N:vis=1	!	!	!	!
1F\	2A/	1.c	2.cc\	2.a\
.	2A/	.	.	.
.	.	.	4b-\	4g/
=38-	=38-	=38-	=38-	=38-
2.F\	2.A/	.	4a\	4f/
.	.	.	4g/	4e/
.	.	2c/	2.a\	2.f/
4E\	4G/	.	.	.
2D/	2F/	2.d\	.	.
.	.	.	4a\	4f/
2BB-/	[y2B-\	.	2dd\	2f/
.	.	8c/	.	.
.	.	8B-/	.	.
=39	=39	=39	=39	=39
!	!LO:N:xstem:cue	!	!	!
2F\	4B-\]	1c	1cc	1f
.	8A/	.	.	.
.	8G/	.	.	.
2FF/	2A/	.	.	.
0.BB-	2B-\	2d\	1b-	1f
.	2d\	2f\	.	.
=40-	=40-	=40-	=40-	=40-
.	2B-\	2d\	2r	2r
.	2.d\	2.f\	2dd\	2ff\
.	.	.	2b-\	2dd\
.	4c\	4e\	.	.
.	4B-\	2d\	[y2dd\	[y2ff\
.	4A/	.	.	.
=41	=41	=41	=41	=41
!	!	!	!LO:N:xstem:cue	!LO:N:xstem:cue
0r	2G/	2d\	4dd\]	4ff\]
.	.	.	4dd\	4ff\
.	2C/	2g\	4cc\	2ee-X\
.	.	.	2cc\	.
.	2G/	1g	.	1dd
!	!	!	!LO:N:acc=#	!
.	.	.	8bn\	.
.	.	.	8a\	.
.	2G/	.	2b\	.
=42-	=42-	=42-	=42-	=42-
2r	4C/	1g	0cc	0ee-y
.	4D/	.	.	.
2C/	4E/	.	.	.
.	8D/	.	.	.
.	8E/	.	.	.
2AA/	4F/	2r	.	.
.	4E/	.	.	.
2C/	4D/	2g\	.	.
.	8E/	.	.	.
.	8F/	.	.	.
=43	=43	=43	=43	=43
4C/	2G/	2e\	2r	1r
4BB-/	.	.	.	.
4AA/	2C/	2e\	2cc\	.
4GG/	.	.	.	.
*custos:FF	*custos:F	*custos:f	*custos:a	*custos:ff
!!linebreak:original
=-	=-	=-	=-	=-
2FF/	2F/	2f\	2a\	0r
2FF/	4r	2.a\	2.cc\	.
.	4c\	.	.	.
=44-	=44-	=44-	=44-	=44-
2.F\	2A/	.	.	.
.	.	4g\	4b-\	.
.	2c\	2.f\	4a\	.
4E\	.	.	4g/	.
2.D/	[y1F	.	1a	2r
.	.	4e\	.	.
.	.	[y2d\	.	2ff\
4C/	.	.	.	.
=45	=45	=45	=45	=45
!	!LO:N:vis=4:xstem:cue	!LO:N:xstem:cue	!	!
2.BB-/	2F/]	4d\]	2b-\	2dd\
.	.	4c/	.	.
.	2F/	2B-/	2.dd\	2.ff\
4C/	.	.	.	.
2.D/	0F	2A/	.	.
.	.	.	4cc\	4ee\
.	.	2f\	2b-\	2dd\
4E\	.	.	.	.
=46-	=46-	=46-	=46-	=46-
2F\	.	1f	1a	1cc
2FF/	.	.	.	.
1C	2.G/	2e\	[<1g	[<1cc
.	.	2e\	.	.
.	4c\	.	.	.
=47	=47	=47	=47	=47
2r	2c\	2e\	1g]	1cc]
2C/	2c\	2e\	.	.
2C/	2.G/	2.e\	2r	0r
2C/	.	.	2cc\	.
.	4F/	4d\	.	.
=48-	=48-	=48-	=48-	=48-
2.C/	4E/	4c/	2cc\	.
.	4F/	4d\	.	.
.	2G/	1e	2cc\	.
4BB-/	.	.	.	.
4AA/	2.A/	.	2.cc\	2r
4GG/	.	.	.	.
2FF/	.	2f\	.	2ff\
.	4G/	.	4b-\	.
=49	=49	=49	=49	=49
2.F\	4A/	1c	4a\	2ff\
.	4B-\	.	4g/	.
.	2c\	.	1a	2ff\
4E\	.	.	.	.
4D/	2F/	2.d\	.	2.ff\
4C/	.	.	.	.
1BB-/	2F/	.	1b-\	.
.	.	4e\	.	4ee\
=50-	=50-	=50-	=50-	=50-
.	2F/	1f	.	2dd\
2FF/	2F/	.	1a	2cc\
2.AA/	2F/	1c	.	2cc\
.	4C/	.	4g/	4b-\
4BB-/	4D/	.	4f/	4a\
=51	=51	=51	=51	=51
0C	4E/	0.c	2e/	4b-\
.	4C/	.	.	8a\
.	.	.	.	8g\
.	2.c\	.	2.f/	2a\
.	.	.	.	1g
.	4B-\	.	8e/	.
.	.	.	8d/	.
.	2G/	.	2e/	.
=52-	=52-	=52-	=52-	=52-
1.FF	1.F	.	2f/	2a\
.	.	.	2a\	2cc\
.	.	2r	2a\	2cc\
2F\	2A/	2c/	2a\	2cc\
=53	=53	=53	=53	=53
2F\	2A/	2c/	2.a\	2.cc\
2F\	2A/	2c/	.	.
.	.	.	4b-\	4b-\
*	*	*lig	*	*
2.F\	2.A/	1c	2cc\	4a\
.	.	.	.	4g\
.	.	.	1f/	1a\
4E\	4G/	.	.	.
=54-	=54-	=54-	=54-	=54-
*	*	*col	*	*
4D/	4F/	2.d\	.	.
4C/	4E/	.	.	.
4BB-/	2F/	.	2f/	1dd
*	*	*Xlig	*	*
4C/	.	8c/	.	.
.	.	8B-/	.	.
*	*	*Xcol	*	*
2D/	2F/	4A/	1f	.
.	.	4B-/	.	.
2AA/	2F/	2c/	.	[<2cc\
=55	=55	=55	=55	=55
0BB-	0F	1d	0f	2cc\]
.	.	.	.	4b-\
.	.	.	.	4a\
.	.	2d\	.	4b-\
.	.	.	.	4f/
.	.	1d\	.	1b-\
=56-	=56-	=56-	=56-	=56-
0FFl	0Fl	.	0fl	.
.	.	4c/	.	4a\
.	.	4B-/	.	4g/
.	.	1cl	.	1al
==	==	==	==	==
*-	*-	*-	*-	*-
!!!system-decoration: [(s1,s2,s3,s4,s5)]
!!!RDF**kern: l = terminal long
!!!RDF**kern: i = editorial accidental
!!!RDF**kern: > = above
!!!RDF**kern: < = below
!!!ENC: Katarzyna Serwa
!!!END: 2021-12-27
!!!ENC: Anastazja Marusiak
!!!END: 2021-12-22
!!!YEC: Copyright 2022 Narodowy Instytut Fryderyka Chopina (https://polishscores.org)
!!!YEM: License CC-BY-4.0 (https://creativecommons.org/licenses/by/4.0)
